icons/Elixir-Light.svg

<svg width="256" height="256" viewBox="0 0 256 256" fill="none" xmlns="http://www.w3.org/2000/svg">
<rect width="256" height="256" rx="60" fill="#F4F2ED"/>
<path fill-rule="evenodd" clip-rule="evenodd" d="M133.418 28.5034C118.887 33.6538 104.861 48.6865 91.338 73.6015C71.0538 110.974 44.8557 164.081 80.9307 206.129C97.62 225.581 125.176 237.062 161.34 218.879C190.391 204.272 198.471 162.353 188.041 142.654C166.526 102.02 144.698 91.9975 138.853 66.7979C134.956 49.9982 133.145 37.2334 133.418 28.5034V28.5034Z" fill="url(#paint0_linear_306_58)"/>
<path fill-rule="evenodd" clip-rule="evenodd" d="M133.418 28C118.813 33.2035 104.787 48.2362 91.3378 73.0981C71.1641 110.391 44.8554 163.578 80.9304 205.625C97.6198 225.078 124.821 231.364 139.915 219.827C149.755 212.306 156.447 205.137 160.303 190.031C164.596 173.211 161.302 150.567 159.045 140.164C156.189 127.001 155.254 112.553 156.24 96.8214C155.893 96.3979 155.633 96.081 155.461 95.8706C147.603 86.254 141.54 77.8776 138.853 66.2945C134.956 49.4948 133.144 36.7299 133.418 28V28Z" fill="url(#paint1_linear_306_58)"/>
<path fill-rule="evenodd" clip-rule="evenodd" d="M121.325 34.543C107.723 45.2935 97.6091 63.3258 90.9841 88.6398C81.0465 126.611 79.9696 161.626 83.4745 181.993C90.2688 221.475 125.493 236.462 161.623 218.085C183.857 206.775 193.118 182.499 192.628 156.148C192.12 128.864 139.395 97.9413 130.057 75.1707C123.832 59.9903 120.921 46.4477 121.325 34.543V34.543Z" fill="url(#paint2_linear_306_58)"/>
<path fill-rule="evenodd" clip-rule="evenodd" d="M155.811 105.732C172.124 126.654 175.68 141.218 166.479 149.424C152.677 161.734 118.925 169.765 97.9271 154.875C83.9288 144.948 78.6324 123.652 82.0378 90.9883C76.2593 103.056 71.3735 115.281 67.3804 127.663C63.3874 140.045 62.2213 153.002 63.8823 166.535C68.8865 176.659 81.0536 183.42 100.384 186.82C129.378 191.918 156.821 189.399 175.236 180.116C187.512 173.928 193.319 167.767 192.655 161.635C193.099 152.579 190.306 143.959 184.278 135.773C178.25 127.588 168.761 117.574 155.811 105.732V105.732Z" fill="url(#paint3_linear_306_58)"/>
<path fill-rule="evenodd" clip-rule="evenodd" d="M92.0601 84.8403C91.9237 99.9501 95.8089 114.314 103.715 127.931C115.575 148.358 129.419 168.541 150.135 185.272C163.946 196.425 174.981 200.029 183.241 196.082C176.457 208.224 169.243 214.174 161.6 213.931C150.135 213.567 136.156 208.557 113.758 181.64C98.8252 163.696 88.6099 146.722 83.1118 130.718C83.9837 124.369 84.9082 118.045 85.8854 111.747C86.8626 105.448 88.9209 96.4794 92.0601 84.8403V84.8403Z" fill="url(#paint4_linear_306_58)"/>
<path fill-rule="evenodd" clip-rule="evenodd" d="M127.098 105.576C128.365 117.885 133.155 137.575 127.098 150.684C121.041 163.794 93.0644 187.476 100.787 208.339C108.51 229.201 127.33 224.517 139.135 214.903C150.94 205.288 157.259 189.655 158.66 178.661C160.061 167.666 155.309 146.512 153.763 128.111C152.733 115.844 153.432 105.326 155.861 96.5575L152.243 92.0054L130.951 85.7012C127.537 90.7453 126.253 97.3703 127.098 105.576V105.576Z" fill="url(#paint5_linear_306_58)"/>
<path fill-rule="evenodd" clip-rule="evenodd" d="M134.698 44.6094C127.807 47.5213 121.278 53.2912 115.111 61.9192C105.86 74.861 101.148 82.6189 104.636 108.273C106.961 125.376 108.625 141.11 109.628 155.475L139.45 68.8285C138.354 64.4134 137.442 60.4261 136.715 56.8664C135.987 53.3068 135.315 49.2211 134.698 44.6094V44.6094Z" fill="url(#paint6_linear_306_58)"/>
<path fill-rule="evenodd" clip-rule="evenodd" d="M139.393 68.6553C131.823 73.074 125.957 82.1269 121.795 95.8139C117.633 109.501 113.826 128.635 110.373 153.216C114.978 137.582 118.033 126.258 119.538 119.244C121.795 108.724 122.566 93.8468 128.559 83.7467C132.554 77.0133 136.165 71.9828 139.393 68.6553V68.6553Z" fill="#330A4C" fill-opacity="0.316321"/>
<path fill-rule="evenodd" clip-rule="evenodd" d="M104.34 215.306C116.798 217.086 123.313 218.668 123.883 220.053C124.739 222.131 122.306 224.031 115.391 222.754C110.781 221.903 107.097 219.42 104.34 215.306Z" fill="white"/>
<path fill-rule="evenodd" clip-rule="evenodd" d="M110.599 44.6094C103.747 52.7956 97.8089 61.4742 92.7858 70.6454C87.7628 79.8165 84.1737 86.6585 82.0185 91.1714C81.3505 94.5373 81.0244 99.5038 81.0404 106.071C81.0563 112.638 81.6243 119.94 82.7444 127.976C83.7251 112.239 86.7272 96.9632 91.7509 82.1492C96.7745 67.3351 103.057 54.8218 110.599 44.6094V44.6094Z" fill="#EDEDED" fill-opacity="0.603261"/>
<defs>
<linearGradient id="paint0_linear_306_58" x1="130.619" y1="43.2442" x2="123.681" y2="227.849" gradientUnits="userSpaceOnUse">
<stop stop-color="#D9D8DC"/>
<stop offset="1" stop-color="white" stop-opacity="0.385275"/>
</linearGradient>
<linearGradient id="paint1_linear_306_58" x1="133.755" y1="43.1976" x2="61.2461" y2="202.116" gradientUnits="userSpaceOnUse">
<stop stop-color="#8D67AF" stop-opacity="0.671932"/>
<stop offset="1" stop-color="#9F8DAF"/>
</linearGradient>
<linearGradient id="paint2_linear_306_58" x1="141.849" y1="94.6868" x2="141.849" y2="222.482" gradientUnits="userSpaceOnUse">
<stop stop-color="#26053D" stop-opacity="0.761634"/>
<stop offset="1" stop-color="#B7B4B4" stop-opacity="0.277683"/>
</linearGradient>
<linearGradient id="paint3_linear_306_58" x1="76.2781" y1="103.33" x2="108.812" y2="189.51" gradientUnits="userSpaceOnUse">
<stop stop-color="#91739F" stop-opacity="0.45955"/>
<stop offset="1" stop-color="#32054F" stop-opacity="0.539912"/>
</linearGradient>
<linearGradient id="paint4_linear_306_58" x1="163.238" y1="209.304" x2="73.7728" y2="135.173" gradientUnits="userSpaceOnUse">
<stop stop-color="#463D49" stop-opacity="0.331182"/>
<stop offset="1" stop-color="#340A50" stop-opacity="0.821388"/>
</linearGradient>
<linearGradient id="paint5_linear_306_58" x1="144.85" y1="95.8913" x2="81.7508" y2="191.882" gradientUnits="userSpaceOnUse">
<stop stop-color="#715383" stop-opacity="0.145239"/>
<stop offset="1" stop-color="#F4F4F4" stop-opacity="0.233639"/>
</linearGradient>
<linearGradient id="paint6_linear_306_58" x1="150.884" y1="125.17" x2="106.199" y2="122.442" gradientUnits="userSpaceOnUse">
<stop stop-color="#A5A1A8" stop-opacity="0.356091"/>
<stop offset="1" stop-color="#370C50" stop-opacity="0.581975"/>
</linearGradient>
</defs>
</svg>

<svg xmlns="http://www.w3.org/2000/svg" width="256" height="256" fill="none" viewBox="0 0 256 256"><rect width="256" height="256" fill="#F4F2ED" rx="60"/><path fill="url(#a)" fill-rule="evenodd" d="M133.42 28.5q-21.8 7.73-42.08 45.1c-20.29 37.37-46.48 90.48-10.4 132.53 16.68 19.45 44.24 30.93 80.4 12.75 29.05-14.6 37.13-56.53 26.7-76.23C166.53 102.02 144.7 92 138.85 66.8q-5.84-25.2-5.43-38.3" clip-rule="evenodd"/><path fill="url(#b)" fill-rule="evenodd" d="M133.42 28q-21.9 7.8-42.08 45.1c-20.18 37.3-46.48 90.48-10.41 132.53 16.69 19.45 43.9 25.73 58.98 14.2 9.84-7.52 16.54-14.7 20.4-29.8 4.29-16.82 1-39.46-1.27-49.87q-4.28-19.73-2.8-43.34l-.78-.95c-7.86-9.62-13.92-18-16.6-29.58Q133 41.1 133.41 28" clip-rule="evenodd"/><path fill="url(#c)" fill-rule="evenodd" d="M121.33 34.54q-20.4 16.13-30.35 54.1c-9.93 37.97-11.01 72.99-7.5 93.35 6.79 39.48 42.01 54.47 78.14 36.1 22.24-11.31 31.5-35.6 31-61.94-.5-27.29-53.22-58.2-62.56-80.98q-9.34-22.77-8.73-40.63" clip-rule="evenodd"/><path fill="url(#d)" fill-rule="evenodd" d="M155.81 105.73q24.47 31.38 10.67 43.7c-13.8 12.3-47.55 20.33-68.55 5.44Q76.93 140 82.03 91a293 293 0 0 0-14.65 36.67 90 90 0 0 0-3.5 38.88q7.5 15.18 36.5 20.28c29 5.1 56.44 2.58 74.86-6.7q18.41-9.29 17.41-18.49.67-13.58-8.37-25.86-9.05-12.28-28.47-30.04" clip-rule="evenodd"/><path fill="url(#e)" fill-rule="evenodd" d="M92.06 84.84q-.2 22.66 11.66 43.1c11.86 20.42 25.7 40.6 46.41 57.33q20.72 16.74 33.11 10.81-10.17 18.22-21.64 17.85c-11.47-.36-25.44-5.37-47.84-32.29q-22.4-26.92-30.65-50.92 1.3-9.52 2.78-18.97 1.46-9.45 6.17-26.91" clip-rule="evenodd"/><path fill="url(#f)" fill-rule="evenodd" d="M127.1 105.58c1.27 12.3 6.06 32 0 45.1s-34.04 36.8-26.31 57.66c7.72 20.86 26.54 16.18 38.34 6.56 11.81-9.61 18.13-25.25 19.53-36.24s-3.35-32.15-4.9-50.55q-1.54-18.4 2.1-31.55L152.24 92l-21.29-6.3q-5.12 7.56-3.85 19.87" clip-rule="evenodd"/><path fill="url(#g)" fill-rule="evenodd" d="M134.7 44.6q-10.34 4.38-19.59 17.32c-9.25 12.94-13.96 20.7-10.47 46.35a730 730 0 0 1 4.99 47.2l29.82-86.64q-1.64-6.62-2.73-11.96-1.1-5.34-2.02-12.26" clip-rule="evenodd"/><path fill="#330A4C" fill-opacity=".32" fill-rule="evenodd" d="M139.4 68.66q-11.37 6.62-17.6 27.15-6.25 20.54-11.43 57.4 6.9-23.44 9.17-33.97c2.25-10.52 3.03-25.4 9.02-35.5q6-10.1 10.83-15.08" clip-rule="evenodd"/><path fill="#fff" fill-rule="evenodd" d="M104.34 215.3q18.69 2.68 19.54 4.75c.86 2.08-1.57 3.98-8.49 2.7q-6.91-1.28-11.05-7.44" clip-rule="evenodd"/><path fill="#EDEDED" fill-opacity=".6" fill-rule="evenodd" d="M110.6 44.6a161 161 0 0 0-17.81 26.05 462 462 0 0 0-10.77 20.52q-1 5.05-.98 14.9t1.7 21.9a176 176 0 0 1 9.01-45.82q7.53-22.22 18.85-37.54" clip-rule="evenodd"/><defs><linearGradient id="a" x1="130.62" x2="123.68" y1="43.24" y2="227.85" gradientUnits="userSpaceOnUse"><stop stop-color="#D9D8DC"/><stop offset="1" stop-color="#fff" stop-opacity=".39"/></linearGradient><linearGradient id="b" x1="133.75" x2="61.25" y1="43.2" y2="202.12" gradientUnits="userSpaceOnUse"><stop stop-color="#8D67AF" stop-opacity=".67"/><stop offset="1" stop-color="#9F8DAF"/></linearGradient><linearGradient id="c" x1="141.85" x2="141.85" y1="94.69" y2="222.48" gradientUnits="userSpaceOnUse"><stop stop-color="#26053D" stop-opacity=".76"/><stop offset="1" stop-color="#B7B4B4" stop-opacity=".28"/></linearGradient><linearGradient id="d" x1="76.28" x2="108.81" y1="103.33" y2="189.51" gradientUnits="userSpaceOnUse"><stop stop-color="#91739F" stop-opacity=".46"/><stop offset="1" stop-color="#32054F" stop-opacity=".54"/></linearGradient><linearGradient id="e" x1="163.24" x2="73.77" y1="209.3" y2="135.17" gradientUnits="userSpaceOnUse"><stop stop-color="#463D49" stop-opacity=".33"/><stop offset="1" stop-color="#340A50" stop-opacity=".82"/></linearGradient><linearGradient id="f" x1="144.85" x2="81.75" y1="95.89" y2="191.88" gradientUnits="userSpaceOnUse"><stop stop-color="#715383" stop-opacity=".15"/><stop offset="1" stop-color="#F4F4F4" stop-opacity=".23"/></linearGradient><linearGradient id="g" x1="150.88" x2="106.2" y1="125.17" y2="122.44" gradientUnits="userSpaceOnUse"><stop stop-color="#A5A1A8" stop-opacity=".36"/><stop offset="1" stop-color="#370C50" stop-opacity=".58"/></linearGradient></defs></svg>
